icons/svg/open-pages_12.svg

<?xml version="1.0" encoding="UTF-8"?>
<svg width="12px" height="12px" viewBox="0 0 12 12" version="1.1" xmlns="http://www.w3.org/2000/svg" xmlns:xlink="http://www.w3.org/1999/xlink">
    <!-- Generator: Sketch 59.1 (86144) - https://sketch.com -->
    <title>open-pages_12</title>
    <desc>Created with Sketch.</desc>
    <g id="New-Icon" stroke="none" stroke-width="1" fill="none" fill-rule="evenodd">
        <g id="open-pages_12" fill="#171B1F">
            <path d="M10,9.6226 C10,9.8226 9.864,9.9846 9.696,9.9846 L9,9.9846 L9,4.7916 C9,4.5876 8.923,4.3946 8.781,4.2476 L6.358,1.7316 C6.215,1.5816 6.014,1.4966 5.808,1.4966 L4.031,1.4966 L4.031,1.3616 C4.031,1.1626 4.167,0.9996 4.335,0.9996 L7.713,0.9996 L10,3.4516 L10,9.6226 Z M6,2.8006 L7.657,4.5206 L6.229,4.5206 C6.103,4.5206 6,4.4096 6,4.2726 L6,2.8006 Z M7.692,10.9996 L2.308,10.9996 C2.138,10.9996 2,10.8486 2,10.6616 L2,2.8346 C2,2.6486 2.138,2.4966 2.308,2.4966 L5,2.4966 L5,4.2726 C5,4.9606 5.552,5.5206 6.229,5.5206 L8,5.5206 L8,10.6616 C8,10.8486 7.862,10.9996 7.692,10.9996 L7.692,10.9996 Z M10.787,2.8296 L8.374,0.2426 C8.23,0.0886 8.028,-0.0004 7.819,-0.0004 L4.335,-0.0004 C3.616,-0.0004 3.031,0.6106 3.031,1.3616 L3.031,1.4966 L2.308,1.4966 C1.586,1.4966 1,2.0976 1,2.8346 L1,10.6616 C1,11.3996 1.586,11.9996 2.308,11.9996 L7.692,11.9996 C8.302,11.9996 8.792,11.5626 8.936,10.9846 L9.696,10.9846 C10.415,10.9846 11,10.3736 11,9.6226 L11,3.3736 C11,3.1696 10.924,2.9756 10.787,2.8296 L10.787,2.8296 Z" id="fill"></path>
        </g>
    </g>
</svg>

<svg width="12" height="12" xmlns="http://www.w3.org/2000/svg"><path d="M10 9.623c0 .2-.136.362-.304.362H9V4.792a.778.778 0 00-.219-.544L6.358 1.732a.763.763 0 00-.55-.235H4.031v-.135c0-.2.136-.362.304-.362h3.378L10 3.452v6.17zM6 2.8l1.657 1.72H6.229C6.103 4.52 6 4.41 6 4.273V2.8zM7.692 11H2.308c-.17 0-.308-.151-.308-.338V2.835c0-.186.138-.338.308-.338H5v1.776A1.24 1.24 0 006.229 5.52H8v5.14c0 .188-.138.339-.308.339zm3.095-8.17L8.374.243A.763.763 0 007.819 0H4.335c-.719 0-1.304.61-1.304 1.362v.135h-.723c-.722 0-1.308.6-1.308 1.338v7.827C1 11.4 1.586 12 2.308 12h5.384c.61 0 1.1-.437 1.244-1.015h.76c.719 0 1.304-.611 1.304-1.362v-6.25a.793.793 0 00-.213-.543z" fill="#171B1F" fill-rule="evenodd"/></svg>
